preferences/22/preferences-devices-tree.svg

<svg width="22" height="22" version="1.1" viewBox="0 0 22 22" xmlns="http://www.w3.org/2000/svg" xmlns:xlink="http://www.w3.org/1999/xlink">
<defs>
<linearGradient id="linearGradient3403" x1="6.9492" x2="11.215" y1="4.5549" y2="59.052" gradientUnits="userSpaceOnUse">
<stop style="stop-color:#32373c" offset="0"/>
<stop style="stop-color:#1a1a1a" offset=".36805"/>
<stop style="stop-color:#31363b" offset="1"/>
</linearGradient>
<linearGradient id="linearGradient20558" x1="25.802" x2="25.111" y1="20.374" y2="58.913" gradientUnits="userSpaceOnUse">
<stop style="stop-color:#3d3d3d" offset="0"/>
<stop offset=".61772"/>
<stop style="stop-color:#3d3d3d" offset="1"/>
</linearGradient>
<linearGradient id="linearGradient4557" x1="43.5" x2="44.142" y1="64.012" y2=".30621" gradientTransform="translate(.36068 -.13017)" gradientUnits="userSpaceOnUse">
<stop style="stop-color:#141618" offset="0"/>
<stop style="stop-color:#686868" offset=".51821"/>
<stop style="stop-color:#31363b" offset="1"/>
</linearGradient>
<linearGradient id="b" x2="0" y1="30" y2="2" gradientUnits="userSpaceOnUse">
<stop stop-color="#c3c8cd" offset="0"/>
<stop stop-color="#e4e6e8" offset="1"/>
</linearGradient>
<linearGradient id="c" x1="12" x2="20" y1="9" y2="17" gradientUnits="userSpaceOnUse" xlink:href="#a"/>
<linearGradient id="a">
<stop stop-color="#292c2f" offset="0"/>
<stop stop-opacity="0" offset="1"/>
</linearGradient>
<linearGradient id="d" x1="17" x2="24" y1="18" y2="25" gradientUnits="userSpaceOnUse" xlink:href="#a"/>
<linearGradient id="e" x1="21" x2="29" y1="27" y2="35" gradientUnits="userSpaceOnUse" xlink:href="#a"/>
<linearGradient id="f" x1="16" x2="16" y1="10" y2="2" gradientUnits="userSpaceOnUse">
<stop stop-color="#da4453" offset="0"/>
<stop stop-color="#e4848f" offset="1"/>
</linearGradient>
<linearGradient id="g" x1="7" x2="14" y1="18" y2="25" gradientUnits="userSpaceOnUse" xlink:href="#a"/>
<linearGradient id="h" x1="11" x2="11" y1="19" y2="11" gradientUnits="userSpaceOnUse">
<stop stop-color="#8e44ad" offset="0"/>
<stop stop-color="#b08bc4" offset="1"/>
</linearGradient>
<linearGradient id="i" x1="3" x2="11" y1="27" y2="35" gradientUnits="userSpaceOnUse" xlink:href="#a"/>
<linearGradient id="j" x1="12" x2="20" y1="27" y2="35" gradientUnits="userSpaceOnUse" xlink:href="#a"/>
<linearGradient id="k" x1="7" x2="7" y1="28" y2="20" gradientUnits="userSpaceOnUse">
<stop stop-color="#208c4e" offset="0"/>
<stop stop-color="#6dbd7f" offset="1"/>
</linearGradient>
</defs>
<g transform="matrix(.67169 0 0 .67169 .44145 .2359)">
<path d="m4 2h24c1.108 0 2 0.892 2 2v24c0 1.108-0.892 2-2 2h-24c-1.108 0-2-0.892-2-2v-24c0-1.108 0.892-2 2-2z" fill="url(#b)" style="fill:url(#b)"/>
<path d="m15.688 7.61-5 4-0.188 0.39v5.76l-4.813 3.85 0.625 0.78 4.688-3.75 4.688 3.75 0.624-0.78-4.812-3.85v-5.52l4.5-3.6 4.5 3.6v5.76l0.188 0.39 5 4 0.625-0.78-4.813-3.85v-5.76l-0.188-0.39-5-4z" fill="#7f8c8d"/>
<path d="m12.292 9.708 2 2 0.416-0.416 5 5 5-5 5.292 5.293v-4l-10.292-10.293z" fill="url(#c)" opacity=".2" style="fill:url(#c)"/>
<path d="m17.292 18.708 1.293 1.292 0.707 0.708 0.416-0.416 4.5 4.5 4.5-4.5 1.292 1.293v-5l-5.292-5.293z" fill="url(#d)" opacity=".2" style="fill:url(#d)"/>
<path d="m28.707 20.293-7.414 7.414 1.291 1.293h5.416c1.108 0 2-0.892 2-2v-5.416z" fill="url(#e)" opacity=".2" style="fill:url(#e)"/>
<rect x="12" y="2" width="8" height="8" rx="1" fill="url(#f)" style="fill:url(#f)"/>
<path d="M 14.707,11.293 7.293,18.707 8.584,20 9.792,21.208 10.708,20.292 12,21.584 19,21 19.292,20.708 18.584,20 17.293,18.707 17,13.584 Z" fill="url(#g)" opacity=".2" style="fill:url(#g)"/>
<path d="m18 11h6c0.554 0 1 0.446 1 1v6c0 0.554-0.446 1-1 1h-6c-0.554 0-1-0.446-1-1v-6c0-0.554 0.446-1 1-1zm-10 0h6c0.554 0 1 0.446 1 1v6c0 0.554-0.446 1-1 1h-6c-0.554 0-1-0.446-1-1v-6c0-0.554 0.446-1 1-1z" fill="url(#h)" style="fill:url(#h)"/>
<path d="m3.292 27.708 1.293 1.292h9l-1.293-1.292-0.292-6.123-1.292-1.293z" fill="url(#i)" opacity=".2" style="fill:url(#i)"/>
<path d="m12.292 27.708 1.293 1.292h9l-1.293-1.292-0.292-6.123-1.292-1.293z" fill="url(#j)" opacity=".2" style="fill:url(#j)"/>
<path d="m4 20h6c0.554 0 1 0.446 1 1v6c0 0.554-0.446 1-1 1h-6c-0.554 0-1-0.446-1-1v-6c0-0.554 0.446-1 1-1zm9 0h6c0.554 0 1 0.446 1 1v6c0 0.554-0.446 1-1 1h-6c-0.554 0-1-0.446-1-1v-6c0-0.554 0.446-1 1-1zm9 0h6c0.554 0 1 0.446 1 1v6c0 0.554-0.446 1-1 1h-6c-0.554 0-1-0.446-1-1v-6c0-0.554 0.446-1 1-1z" fill="url(#k)" style="fill:url(#k)"/>
<path d="m12 8v1c0 0.554 0.446 1 1 1h6c0.554 0 1-0.446 1-1v-1c0 0.554-0.446 1-1 1h-6c-0.554 0-1-0.446-1-1zm5 9v1c0 0.554 0.446 1 1 1h6c0.554 0 1-0.446 1-1v-1c0 0.554-0.446 1-1 1h-6c-0.554 0-1-0.446-1-1zm-10 0v1c0 0.554 0.446 1 1 1h6c0.554 0 1-0.446 1-1v-1c0 0.554-0.446 1-1 1h-6c-0.554 0-1-0.446-1-1zm-4 9v1c0 0.554 0.446 1 1 1h6c0.554 0 1-0.446 1-1v-1c0 0.554-0.446 1-1 1h-6c-0.554 0-1-0.446-1-1zm9 0v1c0 0.554 0.446 1 1 1h6c0.554 0 1-0.446 1-1v-1c0 0.554-0.446 1-1 1h-6c-0.554 0-1-0.446-1-1zm9 0v1c0 0.554 0.446 1 1 1h6c0.554 0 1-0.446 1-1v-1c0 0.554-0.446 1-1 1h-6c-0.554 0-1-0.446-1-1z" fill="#292c2f" opacity=".2"/>
</g>
<path transform="matrix(.33269 0 0 .33269 .46631 .36373)" d="m4.7043 3.9815-0.012938 56.82h53.904l1.0222-2.8664s-23.875 0.76639-32.844-4.1404c-10.516-5.7529-15.372-49.697-15.372-49.697z" style="fill:url(#linearGradient3403);mix-blend-mode:normal;stroke-linejoin:round;stroke-width:1.1624;stroke:url(#linearGradient20558)"/>
<rect transform="matrix(.31166 0 0 .31102 1.0253 1.036)" x="1.0324" y=".59551" width="62.567" height="62.867" rx="5.803" ry="6.2447" style="fill:none;stroke-linejoin:round;stroke-miterlimit:7.8;stroke-opacity:.99515;stroke-width:3.7137;stroke:url(#linearGradient4557)"/>
</svg>

<?xml version="1.0" encoding="UTF-8" standalone="no"?>
<!-- Created with Inkscape (http://www.inkscape.org/) -->

<svg
   width="22"
   height="22"
   version="1.1"
   viewBox="0 0 22 22"
   id="svg22"
   sodipodi:docname="preferences-devices-tree.svg"
   inkscape:version="1.1.2 (0a00cf5339, 2022-02-04)"
   xmlns:inkscape="http://www.inkscape.org/namespaces/inkscape"
   xmlns:sodipodi="http://sodipodi.sourceforge.net/DTD/sodipodi-0.dtd"
   xmlns:xlink="http://www.w3.org/1999/xlink"
   xmlns="http://www.w3.org/2000/svg"
   xmlns:svg="http://www.w3.org/2000/svg">
  <sodipodi:namedview
     id="namedview24"
     pagecolor="#ffffff"
     bordercolor="#666666"
     borderopacity="1.0"
     inkscape:showpageshadow="2"
     inkscape:pageopacity="0.0"
     inkscape:pagecheckerboard="0"
     inkscape:deskcolor="#d1d1d1"
     showgrid="false"
     inkscape:zoom="25.62"
     inkscape:cx="-2.0296643"
     inkscape:cy="16.783763"
     inkscape:window-width="3440"
     inkscape:window-height="1356"
     inkscape:window-x="0"
     inkscape:window-y="0"
     inkscape:window-maximized="1"
     inkscape:current-layer="svg22"
     inkscape:pageshadow="2" />
  <defs
     id="defs12">
    <linearGradient
       id="linearGradient1005-3-3"
       x1="5.2535"
       x2="9.3823996"
       y1="15.383"
       y2="2.9421"
       gradientTransform="matrix(0.99999,0,0,0.99999,1.632,-0.61743)"
       gradientUnits="userSpaceOnUse">
      <stop
         stop-color="#fa8200"
         offset="0"
         id="stop2" />
      <stop
         stop-color="#ff9600"
         offset=".36953"
         id="stop4" />
      <stop
         stop-color="#ffb400"
         offset="1"
         id="stop6" />
    </linearGradient>
    <filter
       id="filter4014"
       x="-0.062499933"
       y="-0.057692993"
       width="1.1249999"
       height="1.115386"
       color-interpolation-filters="sRGB">
      <feGaussianBlur
         stdDeviation="1.093751"
         id="feGaussianBlur9" />
    </filter>
    <linearGradient
       inkscape:collect="always"
       xlink:href="#linearGradient3487"
       id="linearGradient3403"
       gradientUnits="userSpaceOnUse"
       x1="6.9491749"
       y1="4.5549412"
       x2="11.215498"
       y2="59.052471" />
    <linearGradient
       id="linearGradient3487">
      <stop
         style="stop-color:#32373c;stop-opacity:1"
         offset="0"
         id="stop3481" />
      <stop
         id="stop3483"
         offset="0.36804965"
         style="stop-color:#1a1a1a;stop-opacity:1" />
      <stop
         style="stop-color:#31363b;stop-opacity:1"
         offset="1"
         id="stop3485" />
    </linearGradient>
    <linearGradient
       inkscape:collect="always"
       xlink:href="#linearGradient20604"
       id="linearGradient20558"
       gradientUnits="userSpaceOnUse"
       x1="25.802212"
       y1="20.373846"
       x2="25.111048"
       y2="58.912758" />
    <linearGradient
       id="linearGradient20604">
      <stop
         id="stop20598"
         offset="0"
         style="stop-color:#3d3d3d;stop-opacity:1" />
      <stop
         style="stop-color:#000000;stop-opacity:1"
         offset="0.61772454"
         id="stop20600" />
      <stop
         id="stop20602"
         offset="1"
         style="stop-color:#3d3d3d;stop-opacity:1" />
    </linearGradient>
    <filter
       inkscape:collect="always"
       style="color-interpolation-filters:sRGB"
       id="filter20720"
       x="-0.017024755"
       y="-0.016457183"
       width="1.0340491"
       height="1.0329144">
      <feGaussianBlur
         inkscape:collect="always"
         stdDeviation="0.14745661"
         id="feGaussianBlur20722" />
    </filter>
    <linearGradient
       gradientTransform="translate(0.36067797,-0.13016949)"
       xlink:href="#linearGradient4555"
       id="linearGradient4557"
       x1="43.499737"
       y1="64.011795"
       x2="44.141731"
       y2="0.30621234"
       gradientUnits="userSpaceOnUse" />
    <linearGradient
       id="linearGradient4555">
      <stop
         style="stop-color:#141618;stop-opacity:1"
         offset="0"
         id="stop4551" />
      <stop
         id="stop4559"
         offset="0.51820582"
         style="stop-color:#686868;stop-opacity:1" />
      <stop
         style="stop-color:#31363b;stop-opacity:1"
         offset="1"
         id="stop4553" />
    </linearGradient>
    <filter
       style="color-interpolation-filters:sRGB"
       id="filter4601"
       x="-0.030244762"
       width="1.0604895"
       y="-0.030100647"
       height="1.0602013">
      <feGaussianBlur
         stdDeviation="0.014790289"
         id="feGaussianBlur4603" />
    </filter>
    <linearGradient
       id="b"
       gradientUnits="userSpaceOnUse"
       x2="0"
       y1="30"
       y2="2">
      <stop
         offset="0"
         stop-color="#c3c8cd"
         id="stop17" />
      <stop
         offset="1"
         stop-color="#e4e6e8"
         id="stop19" />
    </linearGradient>
    <linearGradient
       id="c"
       gradientUnits="userSpaceOnUse"
       x1="12"
       x2="20"
       xlink:href="#a"
       y1="9"
       y2="17" />
    <linearGradient
       id="a">
      <stop
         offset="0"
         stop-color="#292c2f"
         id="stop22" />
      <stop
         offset="1"
         stop-opacity="0"
         id="stop24" />
    </linearGradient>
    <linearGradient
       id="d"
       gradientUnits="userSpaceOnUse"
       x1="17"
       x2="24"
       xlink:href="#a"
       y1="18"
       y2="25" />
    <linearGradient
       id="e"
       gradientUnits="userSpaceOnUse"
       x1="21"
       x2="29"
       xlink:href="#a"
       y1="27"
       y2="35" />
    <linearGradient
       id="f"
       gradientUnits="userSpaceOnUse"
       x1="16"
       x2="16"
       y1="10"
       y2="2">
      <stop
         offset="0"
         stop-color="#da4453"
         id="stop7" />
      <stop
         offset="1"
         stop-color="#e4848f"
         id="stop9" />
    </linearGradient>
    <linearGradient
       id="g"
       gradientUnits="userSpaceOnUse"
       x1="7"
       x2="14"
       xlink:href="#a"
       y1="18"
       y2="25" />
    <linearGradient
       id="h"
       gradientUnits="userSpaceOnUse"
       x1="11"
       x2="11"
       y1="19"
       y2="11">
      <stop
         offset="0"
         stop-color="#8e44ad"
         id="stop2-3" />
      <stop
         offset="1"
         stop-color="#b08bc4"
         id="stop4-1" />
    </linearGradient>
    <linearGradient
       id="i"
       gradientUnits="userSpaceOnUse"
       x1="3"
       x2="11"
       xlink:href="#a"
       y1="27"
       y2="35" />
    <linearGradient
       id="j"
       gradientUnits="userSpaceOnUse"
       x1="12"
       x2="20"
       xlink:href="#a"
       y1="27"
       y2="35" />
    <linearGradient
       id="k"
       gradientUnits="userSpaceOnUse"
       x1="7"
       x2="7"
       y1="28"
       y2="20">
      <stop
         offset="0"
         stop-color="#208c4e"
         id="stop12" />
      <stop
         offset="1"
         stop-color="#6dbd7f"
         id="stop14" />
    </linearGradient>
  </defs>
  <g
     id="g972"
     transform="matrix(0.67168923,0,0,0.67168923,0.44144866,0.23590206)">
    <path
       d="m 4,2 h 24 c 1.108,0 2,0.892 2,2 v 24 c 0,1.108 -0.892,2 -2,2 H 4 C 2.892,30 2,29.108 2,28 V 4 C 2,2.892 2.892,2 4,2 Z"
       fill="url(#b)"
       id="path33"
       style="fill:url(#b)" />
    <path
       d="m 15.688,7.61 -5,4 L 10.5,12 v 5.76 L 5.687,21.61 6.312,22.39 11,18.64 15.688,22.39 16.312,21.61 11.5,17.76 v -5.52 l 4.5,-3.6 4.5,3.6 V 18 l 0.188,0.39 5,4 0.625,-0.78 L 21.5,17.76 V 12 l -0.188,-0.39 -5,-4 z"
       fill="#7f8c8d"
       id="path35" />
    <path
       d="m 12.292,9.708 2,2 0.416,-0.416 5,5 5,-5 5.292,5.293 v -4 L 19.708,2.292 Z"
       fill="url(#c)"
       opacity="0.2"
       id="path37"
       style="fill:url(#c)" />
    <path
       d="m 17.292,18.708 1.293,1.292 0.707,0.708 0.416,-0.416 4.5,4.5 4.5,-4.5 1.292,1.293 v -5 l -5.292,-5.293 z"
       fill="url(#d)"
       opacity="0.2"
       id="path39"
       style="fill:url(#d)" />
    <path
       d="M 28.707,20.293 21.293,27.707 22.584,29 H 28 c 1.108,0 2,-0.892 2,-2 v -5.416 z"
       fill="url(#e)"
       opacity="0.2"
       id="path41"
       style="fill:url(#e)" />
    <rect
       fill="url(#f)"
       height="8"
       rx="1"
       width="8"
       x="12"
       y="2"
       id="rect43"
       style="fill:url(#f)" />
    <path
       d="M 14.707,11.293 7.293,18.707 8.584,20 9.792,21.208 10.708,20.292 12,21.584 19,21 19.292,20.708 18.584,20 17.293,18.707 17,13.584 Z"
       fill="url(#g)"
       opacity="0.2"
       id="path45"
       style="fill:url(#g)" />
    <path
       d="m 18,11 h 6 c 0.554,0 1,0.446 1,1 v 6 c 0,0.554 -0.446,1 -1,1 h -6 c -0.554,0 -1,-0.446 -1,-1 v -6 c 0,-0.554 0.446,-1 1,-1 z M 8,11 h 6 c 0.554,0 1,0.446 1,1 v 6 c 0,0.554 -0.446,1 -1,1 H 8 C 7.446,19 7,18.554 7,18 v -6 c 0,-0.554 0.446,-1 1,-1 z"
       fill="url(#h)"
       id="path47"
       style="fill:url(#h)" />
    <path
       d="M 3.292,27.708 4.585,29 h 9 L 12.292,27.708 12,21.585 10.708,20.292 Z"
       fill="url(#i)"
       opacity="0.2"
       id="path49"
       style="fill:url(#i)" />
    <path
       d="M 12.292,27.708 13.585,29 h 9 L 21.292,27.708 21,21.585 19.708,20.292 Z"
       fill="url(#j)"
       opacity="0.2"
       id="path51"
       style="fill:url(#j)" />
    <path
       d="m 4,20 h 6 c 0.554,0 1,0.446 1,1 v 6 c 0,0.554 -0.446,1 -1,1 H 4 C 3.446,28 3,27.554 3,27 v -6 c 0,-0.554 0.446,-1 1,-1 z m 9,0 h 6 c 0.554,0 1,0.446 1,1 v 6 c 0,0.554 -0.446,1 -1,1 h -6 c -0.554,0 -1,-0.446 -1,-1 v -6 c 0,-0.554 0.446,-1 1,-1 z m 9,0 h 6 c 0.554,0 1,0.446 1,1 v 6 c 0,0.554 -0.446,1 -1,1 h -6 c -0.554,0 -1,-0.446 -1,-1 v -6 c 0,-0.554 0.446,-1 1,-1 z"
       fill="url(#k)"
       id="path53"
       style="fill:url(#k)" />
    <path
       d="m 12,8 v 1 c 0,0.554 0.446,1 1,1 h 6 c 0.554,0 1,-0.446 1,-1 V 8 c 0,0.554 -0.446,1 -1,1 H 13 C 12.446,9 12,8.554 12,8 Z m 5,9 v 1 c 0,0.554 0.446,1 1,1 h 6 c 0.554,0 1,-0.446 1,-1 v -1 c 0,0.554 -0.446,1 -1,1 h -6 c -0.554,0 -1,-0.446 -1,-1 z M 7,17 v 1 c 0,0.554 0.446,1 1,1 h 6 c 0.554,0 1,-0.446 1,-1 v -1 c 0,0.554 -0.446,1 -1,1 H 8 C 7.446,18 7,17.554 7,17 Z m -4,9 v 1 c 0,0.554 0.446,1 1,1 h 6 c 0.554,0 1,-0.446 1,-1 v -1 c 0,0.554 -0.446,1 -1,1 H 4 C 3.446,27 3,26.554 3,26 Z m 9,0 v 1 c 0,0.554 0.446,1 1,1 h 6 c 0.554,0 1,-0.446 1,-1 v -1 c 0,0.554 -0.446,1 -1,1 h -6 c -0.554,0 -1,-0.446 -1,-1 z m 9,0 v 1 c 0,0.554 0.446,1 1,1 h 6 c 0.554,0 1,-0.446 1,-1 v -1 c 0,0.554 -0.446,1 -1,1 h -6 c -0.554,0 -1,-0.446 -1,-1 z"
       fill="#292c2f"
       opacity="0.2"
       id="path55" />
  </g>
  <path
     style="display:inline;mix-blend-mode:normal;fill:url(#linearGradient3403);fill-opacity:1;stroke:url(#linearGradient20558);stroke-width:1.16242;stroke-linecap:butt;stroke-linejoin:round;stroke-miterlimit:4;stroke-dasharray:none;stroke-opacity:1;filter:url(#filter20720)"
     d="M 4.7043071,3.9814882 4.6913695,60.80196 H 58.59546 l 1.022155,-2.866369 c 0,0 -23.87537,0.766388 -32.844441,-4.140386 C 16.257548,48.042344 11.401114,4.0978197 11.401114,4.0978197 Z"
     id="path1686"
     sodipodi:nodetypes="ccccscc"
     transform="matrix(0.33269207,0,0,0.33269207,0.46630934,0.36373199)"
     inkscape:label="folder" />
  <rect
     style="display:inline;fill:none;fill-opacity:1;stroke:url(#linearGradient4557);stroke-width:3.71366;stroke-linejoin:round;stroke-miterlimit:7.8;stroke-dasharray:none;stroke-opacity:0.995146;filter:url(#filter4601)"
     id="rect4539"
     width="62.567089"
     height="62.866646"
     x="1.0323594"
     y="0.59551275"
     ry="6.2447233"
     rx="5.8029528"
     transform="matrix(0.31166019,0,0,0.31102496,1.0252861,1.0360014)"
     inkscape:label="contour" />
</svg>
